X:1
T:Jesu, thy blood and righteousness
T:Jesu, thy blood and righteousness - Tunbridge (Thomas Clark)
C:Thomas Clark
Z:Text: John Wesley
%%score [ 1 2 3 4 ]
L:1/8
M:2/4
K:F
V:1 treble nm="SOPRANO" snm="S."
V:2 treble nm="ALTO" snm="A."
V:3 treble-8 transpose=-12 nm="TENOR" snm="T."
V:4 bass nm="BASS" snm="B."
V:1
 F2 AB | c3 d | (cf) (ed) | c2 z c | (dB G)B | (cA F)G | (Ac) (BA) | (A2 !fermata!G)c | d2 e2 | %9
w: Bold shall I|stand in|that _ great _|day, For|who _ _ aught|to _ _ my|charge _ shall _|lay? _ Ful-|ly through|
w: Je- su, thy|blood and|right- * eous- *|ness My|beau- * * ty|are, _ _ my|glo- * rious _|dress: _ Midst|fla- ming|
w: When from the|dust of|earth _ I _|rise To|claim _ _ my|man- * * sion|in _ the _|skies, _ Ev’n|then shall|
 f3 e | d2 c2 | =B2 z G | (c/=B/c/d/ e)c | (d/c/d/e/ f)d | c2 =B2 | !fermata!c3 c | f2 c2 | d3 f | %18
w: thee ab-|solv’d I|am From|sin _ _ _ _ and|fear, _ _ _ _ from|guilt and|shame, ful-|ly through|thee ab-|
w: worlds, in|these ar-|ray’d, With|joy _ _ _ _ shall|I _ _ _ _ lift|up my|head, midst|flam- ing|worlds, in|
w: this be|all my|plea, ‘Je-|sus _ _ _ _ hath|liv’d, _ _ _ _ hath|died for|me’, ev’n|then shall|this be|
 c2 B2 | A2 z c | (df e)g | (fc d)B | A2 G2 | F4 |] %24
w: solv’d I|am from|sin _ _ and|fear, _ _ from|guilt and|shame.|
w: these ar-|ray’d, with|joy _ _ shall|I _ _ lift|up my|head.|
w: all my|plea, ‘Je-|sus _ _ hath|liv’d, _ _ hath|died for|me’.|
V:2
 F2 FE | F3 F | (FA) (GF) | E2 z F | F3 E | (F2 C)E | (FA) (GF) | (F2 !fermata!E)F | F2 G2 | A3 G | %10
w: Bold shall I|stand in|that _ great _|day, For|who aught|to _ my|charge _ shall _|lay? _ Ful-|ly through|thee ab-|
w: Je- su, thy|blood and|right- * eous- *|ness My|beau- ty|are, _ my|glo- * rious _|dress: _ Midst|fla- ming|worlds, in|
w: When from the|dust of|earth _ I _|rise To|claim my|man- * sion|in _ the _|skies, _ Ev’n|then shall|this be|
 G2 G2 | G2 z G | G3 G | A3 A | G2 G2 | !fermata!E3 G | A2 F2 | F3 F | F2 E2 | F2 z F | (F2 G)E | %21
w: solv’d I|am From|sin and|fear, from|guilt and|shame, ful-|ly through|thee ab-|solv’d I|am from|sin _ and|
w: these ar-|ray’d, With|joy shall|I lift|up my|head, midst|flam- ing|worlds, in|these ar-|ray’d, with|joy _ shall|
w: all my|plea, ‘Je-|sus hath|liv’d, hath|died for|me’, ev’n|then shall|this be|all my|plea, ‘Je-|sus _ hath|
 (C F2) F | F2 E2 | F4 |] %24
w: fear, _ from|guilt and|shame.|
w: I _ lift|up my|head.|
w: liv’d, _ hath|died for|me’.|
V:3
 c2 cB | A3 F | c2 (c=B) | c2 z A | d3 G | c3 c | c2 d2 | !fermata!c3 c | B2 B2 | c3 c | f2 e2 | %11
w: Bold shall I|stand in|that great _|day, For|who aught|to my|charge shall|lay? Ful-|ly through|thee ab-|solv’d I|
w: Je- su, thy|blood and|right- eous- *|ness My|beau- ty|are, my|glo- rious|dress: Midst|fla- ming|worlds, in|these ar-|
w: When from the|dust of|earth I _|rise To|claim my|man- sion|in the|skies, Ev’n|then shall|this be|all my|
 d2 z =B | c3 c | f3 f | e2 d2 | !fermata!c3 c | c2 A2 | B3 G | c2 c2 | c2 z A | (dc) B2 | A2 G2 | %22
w: am From|sin and|fear, from|guilt and|shame, ful-|ly through|thee ab-|solv’d I|am from|sin _ and|fear, from|
w: ray’d, With|joy shall|I lift|up my|head, midst|flam- ing|worlds, in|these ar-|ray’d, with|joy _ shall|I lift|
w: plea, ‘Je-|sus hath|liv’d, hath|died for|me’, ev’n|then shall|this be|all my|plea, ‘Je-|sus _ hath|liv’d, hath|
 c3 B | A4 |] %24
w: guilt and|shame.|
w: up my|head.|
w: died for|me’.|
V:4
 F,2 F,"^6"G, |"^6" A,3 B, | F,2"^64""^7§" G,2 | C,2 z F, | B,3"^65""^6" G, | A,3"^64" G, | %6
w: Bold shall I|stand in|that great|day, For|who aught|to my|
w: Je- su, thy|blood and|right- eous-|ness My|beau- ty|are, my|
w: When from the|dust of|earth I|rise To|claim my|man- sion|
 F,2"^86""^75" B,,2 |"^64" !fermata!C,3"^53""^6" A, | B,2"^6" G,2 | F,3 C, |"^65" =B,,2 C,2 | %11
w: charge shall|lay? Ful-|ly through|thee ab-|solv’d I|
w: glo- rious|dress: Midst|fla- ming|worlds, in|these ar-|
w: in the|skies, Ev’n|then shall|this be|all my|
"^§" G,2 z"^R2" F, |"^6" (E,>D, C,)"^6"E, |"^6" (F,>E, D,)"^6"F, |"^64" G,2"^5§" G,,2 | %15
w: am From|sin _ _ and|fear, _ _ from|guilt and|
w: ray’d, With|joy _ _ shall|I _ _ lift|up my|
w: plea, ‘Je-|sus _ _ hath|liv’d, _ _ hath|died for|
 !fermata!C,3"^6" E, | %16
w: shame, ful-|
w: head, midst|
w: me’, ev’n|
"^Notes: The order of parts in the source is Tenor - [Alto] - Air - [Bass], with both the Tenor and Alto parts printed in thetreble clef an octave above sounding pitch.Only the first verse of the text is underlaid in the source: the five subsequent verses given here are printed after themusic, and the first three of these have here been underlaid editorially.The soprano A and alto F on beat 1 of bar 8, given here as crotchets, are printed in the source as small crotchetgrace notes followed by full-sized dotted crotchets on the G and E respectively." F,2 F,2 | %17
w: ly through|
w: flam- ing|
w: then shall|
 B,3"^65" B, | %18
w: thee ab-|
w: worlds, in|
w: this be|
"^6" A,2"^This spotless robe the same appears,When ruin’d nature sinks in years:No age can change its glorious hue,The grace of Christ is ever new.O let the dead now hear thy voice,Now bid thy banish’d ones rejoice!Their beauty this, their glorious dress,Jesus the Lord our righteousness!""^43" G,2 | %19
w: solv’d I|
w: these ar-|
w: all my|
 F,2 z F, | (B,"^6"A,)"^6" G,2 |"^6" A,2"^65" B,2 |"^64" C2"^53""^7" C,2 | F,4 |] %24
w: am from|sin _ and|fear, from|guilt and|shame.|
w: ray’d, with|joy _ shall|I lift|up my|head.|
w: plea, ‘Je-|sus _ hath|liv’d, hath|died for|me’.|

